images/brand.svg

<svg xmlns="http://www.w3.org/2000/svg" viewBox="0 0 841.9 595.3" enable-background="new 0 0 841.9 595.3"><font horiz-adv-x="1000"><font-face font-family="MyriadPro-Cond" underline-position="-100" underline-thickness="50"/><glyph unicode="A" horiz-adv-x="435" d="M290 202l45-202h76l-150 674h-85l-154-674h74l45 202m11 62l35 171c9 45 19 103 27 154h4c8-50 17-106 27-154l35-171z"/><glyph unicode="D" horiz-adv-x="445" d="M60 3c23-5 55-7 86-7 78 0 142 23 186 73 43 46 81 130 81 284 0 141-39 228-91 273-37 33-87 51-158 51-39 0-74-4-104-13m77-54c10 3 24 4 36 4 108 0 160-93 160-263 0-229-82-290-167-290-7 0-18 0-29 2z"/><glyph unicode="G" horiz-adv-x="436" d="M392 352h-160v-64h87v-220c-6-3-21-8-47-8-81 0-160 67-160 275 0 209 91 276 175 276 36 0 60-7 78-16l17 66c-21 11-54 19-96 19-119 0-253-90-254-352-1-123 32-216 81-268 45-50 100-66 159-66 43 0 91 11 120 23z"/><glyph unicode="H" horiz-adv-x="463" d="M60 674v-674h77v315h189v-315h77v674h-77v-289h-189v289z"/><glyph unicode="L" horiz-adv-x="344" d="M60 0h267v65h-190v609h-77z"/><glyph unicode="N" horiz-adv-x="465" d="M130 0v233c0 144-2 230-8 320h2c24-84 53-161 80-229l128-324h73v674h-69v-241c0-117 3-204 9-310h-2c-23 73-58 163-86 235l-124 316h-73v-674z"/><glyph unicode="O" horiz-adv-x="446" d="M230 682c-118 0-198-121-198-344 0-227 75-346 187-346 108 0 195 97 195 350 0 215-69 340-184 340m-7-68c88 0 111-149 111-275 0-132-23-279-110-279-85 0-112 138-112 277 0 137 27 277 111 277z"/><glyph horiz-adv-x="157"/></font><g><path d="M228.4 218.3c-4.9 20.9-11.7 41.4-17.3 62.2-6.4 24.2-5.5 25.6 19.5 25.7 120.9.2 241.8.8 362.7-.1 75.6-.6 55.9 13 79.9-60 19-57.5 35.6-115.8 53.3-173.7l5.3 1.2c-6.5 39.2-29.5 172.8-33.8 200.5-5.9 37.9-18.4 49.7-57.2 50.1-47.8.5-334.5.2-430.1.1-29 0-29.6-.7-20.7-28.4 19.7-61.3 39.7-122.5 60.1-183.6 1.5-4.6 1.7-11.6 9-12.7.1-.1-21.3 78.8-30.7 118.7zM268.9 60.9c3 7.8-.2 10.5-7.7 14-99 45.6-148.8 135.5-137.2 246.3 9.8 93.8 85 174.9 183.3 196.4 32.3 7 65.1 6.4 97.6-.7 10.5-2.3 21.1-4.7 35.6-7.9-29.7 32.7-123.8 33-186.2 4.5-100.8-45.9-155.8-147.5-142.2-262.3 10.1-85.3 84.8-175.9 156.8-190.3z"/><path fill="none" d="M637.1 280.1h-392.8l47.5-192h392.8z"/><text transform="matrix(1.566 0 -.362 .932 271.871 174.812)"><tspan x="0" y="0" font-family="'MyriadPro-Cond'" font-size="134.439">HANG</tspan><tspan x="17.8" y="109.2" font-family="'MyriadPro-Cond'" font-size="134.439">LOAD</tspan></text><path d="M228.4 218.3c-4.9 20.9-11.7 41.4-17.3 62.2-6.4 24.2-5.5 25.6 19.5 25.7 120.9.2 241.8.8 362.7-.1 75.6-.6 55.9 13 79.9-60 19-57.5 35.6-115.8 53.3-173.7l5.3 1.2c-6.5 39.2-29.5 172.8-33.8 200.5-5.9 37.9-18.4 49.7-57.2 50.1-47.8.5-334.5.2-430.1.1-29 0-29.6-.7-20.7-28.4 19.7-61.3 39.7-122.5 60.1-183.6 1.5-4.6 1.7-11.6 9-12.7.1-.1-21.3 78.8-30.7 118.7zM268.9 60.9c3 7.8-.2 10.5-7.7 14-99 45.6-148.8 135.5-137.2 246.3 9.8 93.8 85 174.9 183.3 196.4 32.3 7 65.1 6.4 97.6-.7 10.5-2.3 21.1-4.7 35.6-7.9-29.7 32.7-123.8 33-186.2 4.5-100.8-45.9-155.8-147.5-142.2-262.3 10.1-85.3 84.8-175.9 156.8-190.3z"/><path fill="none" d="M637.1 280.1h-392.8l47.5-192h392.8z"/><text transform="matrix(1.566 0 -.362 .932 271.871 174.812)"><tspan x="0" y="0" stroke="#000" stroke-width="8.63" stroke-linecap="round" stroke-linejoin="round" stroke-miterlimit="10" font-family="'MyriadPro-Cond'" font-size="134.439">HANG</tspan><tspan x="17.8" y="109.2" stroke="#000" stroke-width="8.63" stroke-linecap="round" stroke-linejoin="round" stroke-miterlimit="10" font-family="'MyriadPro-Cond'" font-size="134.439">LOAD</tspan></text></g></svg>

<?xml version="1.0" encoding="utf-8"?>
<!-- Generator: Adobe Illustrator 17.1.0, SVG Export Plug-In . SVG Version: 6.00 Build 0)  -->
<!DOCTYPE svg PUBLIC "-//W3C//DTD SVG 1.1//EN" "http://www.w3.org/Graphics/SVG/1.1/DTD/svg11.dtd">
<svg version="1.1" id="Ebene_1" xmlns="http://www.w3.org/2000/svg" xmlns:xlink="http://www.w3.org/1999/xlink" x="0px" y="0px"
	 viewBox="0 0 841.9 595.3" enable-background="new 0 0 841.9 595.3" xml:space="preserve">
<font horiz-adv-x="1000">
<!-- Copyright 1992, 1994, 1997, 2000, 2004 Adobe Systems Incorporated. All rights reserved. Myriad is either a registered trademark or a trademark of Adobe Systems Incorporated in the United States and/or other countries. -->
<font-face font-family="MyriadPro-Cond" units-per-em="1000" underline-position="-100" underline-thickness="50"/>
<missing-glyph horiz-adv-x="500" d="M0,0l500,0l0,700l-500,0M250,395l-170,255l340,0M280,350l170,255l0,-510M80,50l170,255l170,-255M50,605l170,-255l-170,-255z"/>
<glyph unicode="A" horiz-adv-x="435" d="M290,202l45,-202l76,0l-150,674l-85,0l-154,-674l74,0l45,202M152,264l35,171C196,480 206,538 214,589l4,0C226,539 235,483 245,435l35,-171z"/>
<glyph unicode="D" horiz-adv-x="445" d="M60,3C83,-2 115,-4 146,-4C224,-4 288,19 332,69C375,115 413,199 413,353C413,494 374,581 322,626C285,659 235,677 164,677C125,677 90,673 60,664M137,610C147,613 161,614 173,614C281,614 333,521 333,351C333,122 251,61 166,61C159,61 148,61 137,63z"/>
<glyph unicode="G" horiz-adv-x="436" d="M392,352l-160,0l0,-64l87,0l0,-220C313,65 298,60 272,60C191,60 112,127 112,335C112,544 203,611 287,611C323,611 347,604 365,595l17,66C361,672 328,680 286,680C167,680 33,590 32,328C31,205 64,112 113,60C158,10 213,-6 272,-6C315,-6 363,5 392,17z"/>
<glyph unicode="H" horiz-adv-x="463" d="M60,674l0,-674l77,0l0,315l189,0l0,-315l77,0l0,674l-77,0l0,-289l-189,0l0,289z"/>
<glyph unicode="L" horiz-adv-x="344" d="M60,0l267,0l0,65l-190,0l0,609l-77,0z"/>
<glyph unicode="N" horiz-adv-x="465" d="M130,0l0,233C130,377 128,463 122,553l2,0C148,469 177,392 204,324l128,-324l73,0l0,674l-69,0l0,-241C336,316 339,229 345,123l-2,0C320,196 285,286 257,358l-124,316l-73,0l0,-674z"/>
<glyph unicode="O" horiz-adv-x="446" d="M230,682C112,682 32,561 32,338C32,111 107,-8 219,-8C327,-8 414,89 414,342C414,557 345,682 230,682M223,614C311,614 334,465 334,339C334,207 311,60 224,60C139,60 112,198 112,337C112,474 139,614 223,614z"/>
<glyph unicode=" " horiz-adv-x="157"/>
</font>

	<g id="Ebene_1">
	<g>
		<g>
			<path d="M228.4,218.3c-4.9,20.9-11.7,41.4-17.3,62.2c-6.4,24.2-5.5,25.6,19.5,25.7c120.9,0.2,241.8,0.8,362.7-0.1
				c75.6-0.6,55.9,13,79.9-60c19-57.5,35.6-115.8,53.3-173.7c1.8,0.4,3.5,0.8,5.3,1.2c-6.5,39.2-29.5,172.8-33.8,200.5
				c-5.9,37.9-18.4,49.7-57.2,50.1c-47.8,0.5-334.5,0.2-430.1,0.1c-29,0-29.6-0.7-20.7-28.4c19.7-61.3,39.7-122.5,60.1-183.6
				c1.5-4.6,1.7-11.6,9-12.7C259.2,99.5,237.8,178.4,228.4,218.3z"/>
			<path d="M268.9,60.9c3,7.8-0.2,10.5-7.7,14c-99,45.6-148.8,135.5-137.2,246.3c9.8,93.8,85,174.9,183.3,196.4
				c32.3,7,65.1,6.4,97.6-0.7c10.5-2.3,21.1-4.7,35.6-7.9c-29.7,32.7-123.8,33-186.2,4.5C153.5,467.6,98.5,366,112.1,251.2
				C122.2,165.9,196.9,75.3,268.9,60.9z"/>
			<polygon fill="none" points="637.1,280.1 244.3,280.1 291.8,88.1 684.6,88.1 			"/>
			<text transform="matrix(1.5663 0 -0.3616 0.9323 271.8706 174.8124)"><tspan x="0" y="0" font-family="'MyriadPro-Cond'" font-size="134.4391">HANG  </tspan><tspan x="17.8" y="109.2" font-family="'MyriadPro-Cond'" font-size="134.4391">LOAD</tspan></text>
		</g>
	</g>
	<g>
		<g>
			<path d="M228.4,218.3c-4.9,20.9-11.7,41.4-17.3,62.2c-6.4,24.2-5.5,25.6,19.5,25.7c120.9,0.2,241.8,0.8,362.7-0.1
				c75.6-0.6,55.9,13,79.9-60c19-57.5,35.6-115.8,53.3-173.7c1.8,0.4,3.5,0.8,5.3,1.2c-6.5,39.2-29.5,172.8-33.8,200.5
				c-5.9,37.9-18.4,49.7-57.2,50.1c-47.8,0.5-334.5,0.2-430.1,0.1c-29,0-29.6-0.7-20.7-28.4c19.7-61.3,39.7-122.5,60.1-183.6
				c1.5-4.6,1.7-11.6,9-12.7C259.2,99.5,237.8,178.4,228.4,218.3z"/>
			<path d="M268.9,60.9c3,7.8-0.2,10.5-7.7,14c-99,45.6-148.8,135.5-137.2,246.3c9.8,93.8,85,174.9,183.3,196.4
				c32.3,7,65.1,6.4,97.6-0.7c10.5-2.3,21.1-4.7,35.6-7.9c-29.7,32.7-123.8,33-186.2,4.5C153.5,467.6,98.5,366,112.1,251.2
				C122.2,165.9,196.9,75.3,268.9,60.9z"/>
			<polygon fill="none" points="637.1,280.1 244.3,280.1 291.8,88.1 684.6,88.1 			"/>
			<text transform="matrix(1.5663 0 -0.3616 0.9323 271.8706 174.8124)"><tspan x="0" y="0" stroke="#000000" stroke-width="8.6295" stroke-linecap="round" stroke-linejoin="round" stroke-miterlimit="10" font-family="'MyriadPro-Cond'" font-size="134.4391">HANG  </tspan><tspan x="17.8" y="109.2" stroke="#000000" stroke-width="8.6295" stroke-linecap="round" stroke-linejoin="round" stroke-miterlimit="10" font-family="'MyriadPro-Cond'" font-size="134.4391">LOAD</tspan></text>
		</g>
	</g>
</g>
</svg>
